X: 16769
T: Hareshaw Burn
R: jig
M: 6/8
K: Dmajor
dcA GAc|dGA cde|d2gf2e|fed edc|
dcA GAc|dGA cde|FGA fed|EFG edc:|
B2G Bdg|fed ecA|FGA fed|EFG edc|
B2G Bdg|fed edc|agf gfe|fdA ecA:|

